white/gold.svg

<!-- Generated by IcoMoon.io -->
<svg version="1.1" xmlns="http://www.w3.org/2000/svg" width="32" height="32" viewBox="0 0 32 32">
<title>gold</title>
<path fill="#fff" d="M16 32c-8.837 0-16-7.163-16-16s7.163-16 16-16 16 7.163 16 16-7.163 16-16 16zM15.75 4c-6.49 0-11.75 5.26-11.75 11.75s5.26 11.75 11.75 11.75 11.75-5.26 11.75-11.75c0-6.489-5.261-11.75-11.75-11.75v0zM15.75 24.57c-4.871 0-8.82-3.949-8.82-8.82s3.949-8.82 8.82-8.82v0c4.871 0 8.82 3.949 8.82 8.82s-3.949 8.82-8.82 8.82v0zM12.82 15.76l2.94 4.4 2.92-4.4-2.92-4.41-2.94 4.41z"></path>
</svg>

<svg width="32" height="32" viewBox="0 0 32 32" xmlns="http://www.w3.org/2000/svg"><path d="M16 32C7.163 32 0 24.837 0 16S7.163 0 16 0s16 7.163 16 16-7.163 16-16 16zm-.25-28C9.26 4 4 9.26 4 15.75S9.26 27.5 15.75 27.5 27.5 22.24 27.5 15.75A11.75 11.75 0 0015.75 4zm0 20.57a8.82 8.82 0 110-17.64 8.82 8.82 0 010 17.64zm-2.93-8.81l2.94 4.4 2.92-4.4-2.92-4.41-2.94 4.41z" fill="#FFF"/></svg>
